icons/Gruvbox-Material-Dark/16x16/apps/discord.svg

<svg width="16" height="16" version="1.1" xmlns="http://www.w3.org/2000/svg" xmlns:xlink="http://www.w3.org/1999/xlink">
 <circle cx="8" cy="8" r="8" style="fill:#6ab1e6"/>
 <path d="m6.5664062 4c-0.7142109 0.1291084-1.3974084 0.3567025-2.0351562 0.6640625-0.00552 0.00252-0.0085797 0.0063087-0.0117188 0.0117187-1.296389 2.0328173-1.6527328 4.0143876-1.4785156 5.9726568 8.077e-4 0.0096 0.0065729 0.01957 0.0136719 0.02539 0.8553203 0.659275 1.6829553 1.05893 2.4960937 1.324219 0.0130151 0.0042 0.0268753-4.79e-4 0.0351563-0.011719 0.192348-0.275696 0.364708-0.64742 0.5117187-0.953125 0.0086701-0.0179 1.604e-4 -0.037842-0.0175781-0.044922-0.2719656-0.108282-0.5301892-0.2407-0.7792969-0.390625-0.0197029-0.01208-0.0220092-0.04248-0.0039062-0.05664 0.052422-0.04123 0.1042418-0.083639 0.1542969-0.126954 0.00906-0.007899 0.0225571-0.008906 0.0332031-0.003906 1.6365297 0.784233 3.4081706 0.784233 5.025391 0 0.01064-0.0054 0.0218-0.003993 0.03125 0.003906 0.05007 0.04331 0.103433 0.085729 0.15625 0.126954 0.01812 0.01416 0.017747 0.04456-0.001954 0.05664-0.249107 0.152837-0.508888 0.282755-0.7812495 0.390625-0.01773 0.0071-0.0262541 0.027022-0.0175781 0.044922 0.1501656 0.305276 0.3229196 0.677415 0.5117186 0.953125 0.0079 0.01166 0.022136 0.015889 0.035156 0.011719 0.817083-0.265289 1.644679-0.664944 2.5-1.324219 0.0075-0.0058 0.012882-0.015811 0.013672-0.02539 0.208503-2.263974-0.349256-4.2292831-1.478515-5.9726568-0.0028-0.0058199-0.008102-0.0092227-0.013672-0.0117187-0.637352-0.3069456-1.320552-0.5345401-2.0351565-0.6640625-0.013015-0.00252-0.0265001 0.003161-0.0332031 0.015625-0.087899 0.1640888-0.1837715 0.2985409-0.2519532 0.4667969-0.7686039-0.120774-1.5342657-0.120774-2.2871093 0-0.068181-0.1719966-0.1695185-0.3027081-0.2578125-0.4667969-0.0067018-0.012076-0.0182348-0.017709-0.03125-0.015625h-0.0019532zm-0.5664062 3c0.561248 0 1.0087743 0.4527368 1 1 0 0.5512044-0.4431389 1-1 1-0.5481181 0-1-0.4487956-1-1s0.4431232-1 1-1zm4 0c0.561248 0 1.008774 0.4527368 1 1 0 0.5512044-0.443139 1-1 1-0.5481181 0-1-0.4487956-1-1s0.4431232-1 1-1z" style="fill:#ffffff"/>
</svg>

<svg xmlns="http://www.w3.org/2000/svg" width="16" height="16" version="1.1">
 <circle style="fill:#5865f2" cx="8" cy="8" r="8"/>
 <path style="fill:#ffffff" d="M 6.5664062 4 C 5.8521953 4.1291084 5.1689978 4.3567025 4.53125 4.6640625 C 4.52573 4.6665825 4.5226703 4.6703712 4.5195312 4.6757812 C 3.2231422 6.7085985 2.8667984 8.6901688 3.0410156 10.648438 C 3.0418233 10.658038 3.0475885 10.668008 3.0546875 10.673828 C 3.9100078 11.333103 4.7376428 11.732758 5.5507812 11.998047 C 5.5637963 12.002247 5.5776565 11.997568 5.5859375 11.986328 C 5.7782855 11.710632 5.9506455 11.338908 6.0976562 11.033203 C 6.1063263 11.015303 6.0978166 10.995361 6.0800781 10.988281 C 5.8081125 10.879999 5.5498889 10.747581 5.3007812 10.597656 C 5.2810783 10.585576 5.278772 10.555176 5.296875 10.541016 C 5.349297 10.499786 5.4011168 10.457377 5.4511719 10.414062 C 5.4602319 10.406163 5.473729 10.405156 5.484375 10.410156 C 7.1209047 11.194389 8.8925456 11.194389 10.509766 10.410156 C 10.520406 10.404756 10.531566 10.406163 10.541016 10.414062 C 10.591086 10.457372 10.644449 10.499791 10.697266 10.541016 C 10.715386 10.555176 10.715013 10.585576 10.695312 10.597656 C 10.446205 10.750493 10.186424 10.880411 9.9140625 10.988281 C 9.8963325 10.995381 9.8878084 11.015303 9.8964844 11.033203 C 10.04665 11.338479 10.219404 11.710618 10.408203 11.986328 C 10.416103 11.997988 10.430339 12.002217 10.443359 11.998047 C 11.260442 11.732758 12.088038 11.333103 12.943359 10.673828 C 12.950859 10.668028 12.956241 10.658017 12.957031 10.648438 C 13.165534 8.384464 12.607775 6.4191549 11.478516 4.6757812 C 11.475716 4.6699613 11.470414 4.6665585 11.464844 4.6640625 C 10.827492 4.3571169 10.144292 4.1295224 9.4296875 4 C 9.4166725 3.99748 9.4031874 4.003161 9.3964844 4.015625 C 9.3085854 4.1797138 9.2127129 4.3141659 9.1445312 4.4824219 C 8.3759273 4.3616479 7.6102655 4.3616479 6.8574219 4.4824219 C 6.7892409 4.3104253 6.6879034 4.1797138 6.5996094 4.015625 C 6.5929076 4.003549 6.5813746 3.997916 6.5683594 4 L 6.5664062 4 z M 6 7 C 6.561248 7 7.0087743 7.4527368 7 8 C 7 8.5512044 6.5568611 9 6 9 C 5.4518819 9 5 8.5512044 5 8 C 5 7.4487956 5.4431232 7 6 7 z M 10 7 C 10.561248 7 11.008774 7.4527368 11 8 C 11 8.5512044 10.556861 9 10 9 C 9.4518819 9 9 8.5512044 9 8 C 9 7.4487956 9.4431232 7 10 7 z"/>
</svg>
